X: 4121
T: GLENKINDIE
R: Strathspey.
%R: strathspey
B: James Kerr "Merry Melodies" v.4 p.15 #121
Z: 2016 John Chambers <jc:trillian.mit.edu>
M: C
L: 1/8
K: G
|:\
G,>G (GB/c/) d>G B2 | d2 (e/d/c/B/) c<A A>B |\
G,>G (GB/c/) d>G B>d | (3efg (3dec (B<G) G2 :|
|:\
(B,<D) (DE/F/) G>D G2 | E<A A>B cBAG |\
(3Bcd (3efg (3edc (3BAG | (3ABc (3dec (B<G) G2 :|

%%sep 1 1 500
%%sep 1 1 500

